X: 17657
T: Holloway Road Fling, The
R: reel
M: 4/4
K: Dmajor
D3F A3B|deed efdA|DGDF AFAB|dBAF (3EFE D2|
D3F A2 AB|deed efd2|D3F AFAB|dBAF (3efe d2||
defd A3B|defd AB2c|d2 {f}ed Bcdc|dBAF (3EFE D2|
defd A3B|defd B3c|de{g}fd Bcd2|dBAF (3EFE D2||

